X:1775
T:Eighth of August
O:england
R:Jig
C:Susan Lawlor
M:6/8
L:1/8
K:EMin
BFE ~A3|~B3 BcA|BFE A2G|FEG FEA|
BFE ~A3|~B3 Bcd|edB ABG|F2G AGF:|
Bcd ~e3|edB edA|Bcd edB|cAG FGA|
Bcd ~e3|edB edB|cAB cFG|A2G FGA:|


